static/assets/template/assets/img/icons/essential/detailed/SD_Card.svg

<svg height="134" viewBox="0 0 109 134" width="109" xmlns="http://www.w3.org/2000/svg"><g fill="none" fill-rule="evenodd"><g transform="translate(2 1)"><path d="m105.2 10.6v110.1c0 5.6-4.5 10.1-10.1 10.1h-84.9c-5.6 0-10.1-4.5-10.1-10.1v-27c0-1.8.8-3.5 2.2-4.6l12.5-9.7v-11.7h-10.1c-2.5 0-4.6-2-4.6-4.6v-10.2c0-1.3.6-2.5 1.5-3.4l9.2-8.1c2.5-2.3 4-5.5 4-8.9v-21.9c0-5.6 4.5-10.1 10.1-10.1h70.2c5.6 0 10.1 4.5 10.1 10.1z" fill-rule="nonzero"/><path d="m105.2 17.8v102.8c0 5.6-4.2 10.1-9.4 10.1h-79c-5.2 0-9.4-4.5-9.4-10.1v-27c0-1.8.8-3.5 2.1-4.6l11.6-9.7v-11.7h-9.4c-.8 0-1.5-.2-2.1-.6-1.3-.8-2.2-2.3-2.2-4v-10.2c0-.7.2-1.5.5-2.1.2-.5.6-.9.9-1.3l8.5-8.1c2.4-2.3 3.7-5.5 3.7-8.9v-14.7c0-5.6 4.2-10.1 9.4-10.1h65.3c1.2 0 2.3.2 3.3.7 3.7 1.5 6.2 5.2 6.2 9.5z" fill="#bad8ff" fill-rule="nonzero"/><path d="m99.2 8.4v95.4c0 5.6-4.2 10.1-9.4 10.1h-79c-1.2 0-2.3-.2-3.3-.7v-19.5c0-1.8.8-3.5 2.1-4.6l11.6-9.7v-11.7h-9.4c-.8 0-1.5-.2-2.1-.6-1.3-.8-2.2-2.3-2.2-4v-10.2c0-.7.2-1.5.5-2.1.2-.5.6-.9.9-1.3l8.5-8.1c2.4-2.3 3.7-5.5 3.7-8.9v-14.7c0-5.6 4.2-10.1 9.4-10.1h65.3c1.2 0 2.3.3 3.4.7z" fill-rule="nonzero"/><g stroke-linecap="round" stroke-linejoin="round" stroke-width="3"><path d="m14.8 67.7h-10c-2.5 0-4.6-2-4.6-4.6v-10.2c0-1.3.6-2.5 1.5-3.4l9.2-8.1c2.5-2.3 4-5.5 4-8.9v-21.9c0-5.6 4.5-10.1 10.1-10.1"/><path d="m105.2 114.8v5.8c0 5.6-4.5 10.1-10.1 10.1h-84.9c-5.6 0-10.1-4.5-10.1-10.1v-27c0-1.8.8-3.5 2.2-4.6l12.5-9.7v-4.7"/><path d="m52.8.5h42.4c5.6 0 10.1 4.5 10.1 10.1v92.8"/><path d="m31.5.5h.5"/><path d="m35.9 28.2v1.7"/><path d="m35.9 13.1v8.1"/><path d="m47.5 13.1v16.8"/><path d="m59 24.7v5.2"/><path d="m59 13.1v3.7"/><path d="m70.6 13.1v16.8"/><path d="m82.1 13.1v16.8"/><path d="m88.7 108.6h.7"/><path d="m75.2 108.6h7"/><path d="m28.6 108.6h39.2"/></g></g><g fill-rule="nonzero" transform="translate(51 75)"><path d="m5.1 16.9c.2 1.8 2.1 3 4.6 3s4.1-1.2 4.1-2.8c0-1.4-1.1-2.2-3.7-2.8l-2.9-.6c-4.1-.9-6.1-2.9-6.1-6.2 0-4.1 3.5-6.8 8.4-6.8 5.1 0 8.4 2.6 8.4 6.6h-4.3c-.2-1.9-1.8-3-4.1-3s-3.8 1.1-3.8 2.7c0 1.4 1.1 2.1 3.6 2.7l2.7.6c4.4.9 6.3 2.8 6.3 6.2 0 4.3-3.5 7-8.9 7-5.3 0-8.7-2.5-8.8-6.7h4.5z"/><path d="m32.3 1.2c6.6 0 10.5 3.9 10.5 10.9s-3.9 11.1-10.5 11.1h-8.5v-22zm-3.9 18.2h3.3c4.1 0 6.4-2.5 6.4-7.3 0-4.6-2.3-7.1-6.4-7.1h-3.3z"/></g></g></svg>

<?xml version="1.0" encoding="UTF-8"?>
<svg width="109px" height="134px" viewBox="0 0 109 134" version="1.1" xmlns="http://www.w3.org/2000/svg" xmlns:xlink="http://www.w3.org/1999/xlink">
    <!-- Generator: Sketch 51.2 (57519) - http://www.bohemiancoding.com/sketch -->
    <title>SD_Card</title>
    <desc>Created with Sketch.</desc>
    <defs></defs>
    <g id="Page-1" stroke="none" stroke-width="1" fill="none" fill-rule="evenodd">
        <g id="SD_Card" transform="translate(2.000000, 1.000000)">
            <g id="Group">
                <path d="M105.2,10.6 L105.2,120.7 C105.2,126.3 100.7,130.8 95.1,130.8 L10.2,130.8 C4.6,130.8 0.1,126.3 0.1,120.7 L0.1,93.7 C0.1,91.9 0.9,90.2 2.3,89.1 L14.8,79.4 L14.8,67.7 L4.7,67.7 C2.2,67.7 0.1,65.7 0.1,63.1 L0.1,52.9 C0.1,51.6 0.7,50.4 1.6,49.5 L10.8,41.4 C13.3,39.1 14.8,35.9 14.8,32.5 L14.8,10.6 C14.8,5 19.3,0.5 24.9,0.5 L95.1,0.5 C100.7,0.5 105.2,5 105.2,10.6 Z" id="Shape" class="fill-neutral" fill-rule="nonzero"></path>
                <path d="M105.2,17.8 L105.2,120.6 C105.2,126.2 101,130.7 95.8,130.7 L16.8,130.7 C11.6,130.7 7.4,126.2 7.4,120.6 L7.4,93.6 C7.4,91.8 8.2,90.1 9.5,89 L21.1,79.3 L21.1,67.6 L11.7,67.6 C10.9,67.6 10.2,67.4 9.6,67 C8.3,66.2 7.4,64.7 7.4,63 L7.4,52.8 C7.4,52.1 7.6,51.3 7.9,50.7 C8.1,50.2 8.5,49.8 8.8,49.4 L17.3,41.3 C19.7,39 21,35.8 21,32.4 L21,17.7 C21,12.1 25.2,7.6 30.4,7.6 L95.7,7.6 C96.9,7.6 98,7.8 99,8.3 C102.7,9.8 105.2,13.5 105.2,17.8 Z" id="Shape" fill="#BAD8FF" fill-rule="nonzero"></path>
                <path d="M99.2,8.4 L99.2,103.8 C99.2,109.4 95,113.9 89.8,113.9 L10.8,113.9 C9.6,113.9 8.5,113.7 7.5,113.2 L7.5,93.7 C7.5,91.9 8.3,90.2 9.6,89.1 L21.2,79.4 L21.2,67.7 L11.8,67.7 C11,67.7 10.3,67.5 9.7,67.1 C8.4,66.3 7.5,64.8 7.5,63.1 L7.5,52.9 C7.5,52.2 7.7,51.4 8,50.8 C8.2,50.3 8.6,49.9 8.9,49.5 L17.4,41.4 C19.8,39.1 21.1,35.9 21.1,32.5 L21.1,17.8 C21.1,12.2 25.3,7.7 30.5,7.7 L95.8,7.7 C97,7.7 98.1,8 99.2,8.4 Z" id="Shape" class="fill-primary-100" fill-rule="nonzero"></path>
                <path d="M14.8,67.7 L4.8,67.7 C2.3,67.7 0.2,65.7 0.2,63.1 L0.2,52.9 C0.2,51.6 0.8,50.4 1.7,49.5 L10.9,41.4 C13.4,39.1 14.9,35.9 14.9,32.5 L14.9,10.6 C14.9,5 19.4,0.5 25,0.5" id="Shape" class="stroke-primary" stroke-width="3" stroke-linecap="round" stroke-linejoin="round"></path>
                <path d="M105.2,114.8 L105.2,120.6 C105.2,126.2 100.7,130.7 95.1,130.7 L10.2,130.7 C4.6,130.7 0.1,126.2 0.1,120.6 L0.1,93.6 C0.1,91.8 0.9,90.1 2.3,89 L14.8,79.3 L14.8,74.6" id="Shape" class="stroke-primary" stroke-width="3" stroke-linecap="round" stroke-linejoin="round"></path>
                <path d="M52.8,0.5 L95.2,0.5 C100.8,0.5 105.3,5 105.3,10.6 L105.3,103.4" id="Shape" class="stroke-primary" stroke-width="3" stroke-linecap="round" stroke-linejoin="round"></path>
                <path d="M31.5,0.5 L32,0.5" id="Shape" class="stroke-primary" stroke-width="3" stroke-linecap="round" stroke-linejoin="round"></path>
                <path d="M35.9,28.2 L35.9,29.9" id="Shape" class="stroke-primary" stroke-width="3" stroke-linecap="round" stroke-linejoin="round"></path>
                <path d="M35.9,13.1 L35.9,21.2" id="Shape" class="stroke-primary" stroke-width="3" stroke-linecap="round" stroke-linejoin="round"></path>
                <path d="M47.5,13.1 L47.5,29.9" id="Shape" class="stroke-primary" stroke-width="3" stroke-linecap="round" stroke-linejoin="round"></path>
                <path d="M59,24.7 L59,29.9" id="Shape" class="stroke-primary" stroke-width="3" stroke-linecap="round" stroke-linejoin="round"></path>
                <path d="M59,13.1 L59,16.8" id="Shape" class="stroke-primary" stroke-width="3" stroke-linecap="round" stroke-linejoin="round"></path>
                <path d="M70.6,13.1 L70.6,29.9" id="Shape" class="stroke-primary" stroke-width="3" stroke-linecap="round" stroke-linejoin="round"></path>
                <path d="M82.1,13.1 L82.1,29.9" id="Shape" class="stroke-primary" stroke-width="3" stroke-linecap="round" stroke-linejoin="round"></path>
                <path d="M88.7,108.6 L89.4,108.6" id="Shape" class="stroke-primary" stroke-width="3" stroke-linecap="round" stroke-linejoin="round"></path>
                <path d="M75.2,108.6 L82.2,108.6" id="Shape" class="stroke-primary" stroke-width="3" stroke-linecap="round" stroke-linejoin="round"></path>
                <path d="M28.6,108.6 L67.8,108.6" id="Shape" class="stroke-primary" stroke-width="3" stroke-linecap="round" stroke-linejoin="round"></path>
            </g>
            <g id="Group" transform="translate(49.000000, 74.000000)" class="fill-primary" fill-rule="nonzero">
                <path d="M5.1,16.9 C5.3,18.7 7.2,19.9 9.7,19.9 C12.2,19.9 13.8,18.7 13.8,17.1 C13.8,15.7 12.7,14.9 10.1,14.3 L7.2,13.7 C3.1,12.8 1.1,10.8 1.1,7.5 C1.1,3.4 4.6,0.7 9.5,0.7 C14.6,0.7 17.9,3.3 17.9,7.3 L13.6,7.3 C13.4,5.4 11.8,4.3 9.5,4.3 C7.2,4.3 5.7,5.4 5.7,7 C5.7,8.4 6.8,9.1 9.3,9.7 L12,10.3 C16.4,11.2 18.3,13.1 18.3,16.5 C18.3,20.8 14.8,23.5 9.4,23.5 C4.1,23.5 0.7,21 0.6,16.8 L5.1,16.8 L5.1,16.9 Z" id="Shape"></path>
                <path d="M32.3,1.2 C38.9,1.2 42.8,5.1 42.8,12.1 C42.8,19.1 38.9,23.2 32.3,23.2 L23.8,23.2 L23.8,1.2 L32.3,1.2 Z M28.4,19.4 L31.7,19.4 C35.8,19.4 38.1,16.9 38.1,12.1 C38.1,7.5 35.8,5 31.7,5 L28.4,5 L28.4,19.4 Z" id="Shape"></path>
            </g>
        </g>
    </g>
</svg>
